X:1
T:Miss Stewart-Robertson of Edradynate
T:Miss Stewart-Robertson of Edradynate
T:Robert Petrie
C:Robert Petrie
L:1/8
M:2/2
K:F
V:1 treble 
V:1
 B | AFAc f2 cf | dfdA BGGB | AFAc f2 cf | dfcf AFF | AFAc f2 cf | dfdA BGGB | AFcA Bcde | %8
 fcdB AFF || f | afge f2 cB | AcfA BGGf | afge f2 cB | Acfc AFFf | afge f2 cB | Acfc BGGB | %16
 AFcA Bcde | fcdB AFF || %18

